X: 9133
T: Daily Delights
R: reel
M: 4/4
K: Dmajor
|:DFAd cdAF|DFAF D2 AF|EGBe gfed|edcB ABFE|
DFAd cdAF|DFAF DFAF|EGBe gfed|cABc dAFE:|
|:dcde fdAF|dcde f2 ef|gfed edcB|A2 AG F3 E|
dcde fdAF|dcde f2 ef|gfed edcB|ABce dAFE:|

